packages/core/src/svgs/tokens/branded/TLOS.svg

<svg width="24" height="24" viewBox="0 0 24 24" fill="none" xmlns="http://www.w3.org/2000/svg">
<path fill-rule="evenodd" clip-rule="evenodd" d="M3.69381 9.61436C3.29818 8.75932 2.6263 6.87617 3.10067 6.18429C3.57569 5.49303 5.01882 4.01865 5.68695 3.47928C5.8282 3.41427 6.26882 3.27927 6.90134 3.25615C7.53446 3.23428 11.0064 3.2474 12.6632 3.25615C12.9645 2.77302 13.6407 2.02426 13.8895 2.00176C14.1376 1.97926 16.9865 2.17802 18.3795 2.28052C18.6621 2.3549 19.1702 2.69927 18.9446 3.47928C18.7182 4.26053 18.1352 5.84992 17.8714 6.54679L21.0627 12.0125C21.0252 12.9325 20.6502 15.3432 20.2664 16.1237C19.9377 16.7913 18.4951 16.9743 17.4539 17.1063C17.2777 17.1288 17.1133 17.1501 16.9676 17.1712C16.5927 18.2819 13.9289 20.5738 6.91321 21.9525C5.8907 22.1532 5.02382 21.7119 4.68381 20.7393C3.43631 17.1706 2.09379 11.7081 3.69381 9.61436ZM5.44257 9.35681C5.52944 9.45175 5.65069 9.72563 5.44257 10.0555L5.44132 10.0581C5.18007 10.4724 4.50068 11.5518 4.53256 13.518C4.55881 15.0931 5.80007 18.5794 6.41758 20.1251C9.24513 19.5957 15.0364 18.035 15.5821 16.0274C15.6258 15.8581 15.8745 15.4875 16.5244 15.3599C16.7658 15.3131 17.0557 15.2768 17.3496 15.2412C18.0445 15.1543 18.7595 15.0662 18.897 14.8199C19.0532 14.5406 19.3733 13.1368 19.5139 12.4699C18.3983 10.8074 16.1607 7.32368 16.1345 6.68867C16.1082 6.05304 16.7301 4.56366 17.0445 3.8749H14.5745C14.3145 4.3724 13.632 5.14992 12.982 5.12491C12.332 5.09991 8.48696 5.11429 6.64508 5.12491L4.53256 7.00617L5.44257 9.35681Z" fill="url(#paint0_linear_364_13627)"/>
<defs>
<linearGradient id="paint0_linear_364_13627" x1="2.9375" y1="12.0001" x2="21.0627" y2="12.0001" gradientUnits="userSpaceOnUse">
<stop stop-color="#AC72F8"/>
<stop offset="0.724" stop-color="#39297E"/>
<stop offset="1" stop-color="#AC72F8"/>
</linearGradient>
</defs>
</svg>

<svg xmlns="http://www.w3.org/2000/svg" width="24" height="24" fill="none" viewBox="0 0 24 24">
    <path fill="url(#TLOS__a)" fill-rule="evenodd" d="M3.694 9.614c-.396-.855-1.068-2.738-.593-3.43.475-.691 1.918-2.165 2.586-2.705.141-.065.582-.2 1.214-.223.633-.022 4.105-.009 5.762 0 .301-.483.978-1.232 1.226-1.254.249-.023 3.098.176 4.49.279.283.074.791.418.566 1.198-.227.782-.81 2.37-1.074 3.068l3.192 5.466c-.038.92-.413 3.33-.797 4.11-.328.668-1.77.851-2.812.983q-.265.034-.486.065c-.375 1.11-3.04 3.403-10.055 4.782-1.022.2-1.89-.241-2.23-1.214-1.247-3.568-2.59-9.03-.99-11.125m1.749-.257c.086.095.208.369 0 .699l-.002.002c-.26.414-.94 1.494-.908 3.46.026 1.575 1.267 5.061 1.885 6.607 2.827-.53 8.618-2.09 9.164-4.098.044-.169.292-.54.942-.667.242-.047.532-.083.826-.119.694-.087 1.41-.175 1.547-.421.156-.28.476-1.683.617-2.35-1.116-1.663-3.353-5.146-3.38-5.781-.026-.636.596-2.125.91-2.814h-2.47c-.26.497-.942 1.275-1.592 1.25s-4.495-.01-6.337 0L4.533 7.006z" clip-rule="evenodd"/>
    <defs>
        <linearGradient id="TLOS__a" x1="2.938" x2="21.063" y1="12" y2="12" gradientUnits="userSpaceOnUse">
            <stop stop-color="#AC72F8"/>
            <stop offset=".724" stop-color="#39297E"/>
            <stop offset="1" stop-color="#AC72F8"/>
        </linearGradient>
    </defs>
</svg>
